icons/glyphs/glyph-paintbrush.svg

<?xml version="1.0" encoding="UTF-8" standalone="no"?><svg viewBox="0 0 16 16" xmlns="http://www.w3.org/2000/svg"><metadata><rdf:RDF><cc:Work><dc:format>image/svg+xml</dc:format><dc:type/><dc:title/></cc:Work></rdf:RDF></metadata><sodipodi:namedview/><path d="m8.6736117 0c-.402229 0-.725695.3234866-.725695.7257417v.1145902.5903161 2.3011945h-3.8576385c-.2954667 0-.5347223.2392709-.5347223.5347568v1.0660418h12.4444441v-1.0660415c0-.2954858-.239256-.5347568-.534722-.5347568h-3.857638v-2.3011944-.5903161-.1145906c0-.4022551-.326938-.7257417-.729167-.7257417zm-5.1180558 7.110534c0 4.90951-1.5918754 8.889464-3.5555556 8.889466h7.1111114 1.777777 3.5555573c1.96366 0 3.555554-3.979956 3.555554-8.889466h-3.555554-3.5555573-1.777777z" fill="#d0d0d0" stroke-width="2.311186"/></svg>

<?xml version="1.0" encoding="UTF-8" standalone="no"?>
<svg viewBox="0 0 16 16" xmlns="http://www.w3.org/2000/svg">
	<metadata>
		<rdf:RDF>
			<cc:Work>
				<dc:format>image/svg+xml			</dc:format>
			<dc:type/>
			<dc:title/>
		</cc:Work>
	</rdf:RDF>
</metadata>
<sodipodi:namedview/>
<path d="M 8.6736117 0 C 8.2713827 0 7.9479167 .3234866 7.9479167 .7257417 V .8403319 V 1.430648 V 3.7318425 H 4.0902782 c -.2954667 0 -.5347223 .2392709 -.5347223 .5347568 V 5.3326411 H 16 V 4.2665996 C 16 3.9711138 15.760744 3.7318428 15.465278 3.7318428 H 11.60764 V 1.4306484 V .8403323 V .7257417 C 11.60764 .3234866 11.280702 0 10.878473 0 Z M 3.5555559 7.110534 C 3.5555559 12.020044 1.9636805 15.999998 .0000003 16 h 7.1111114 h 1.777777 h 3.5555573 C 14.408106 16 16 12.020044 16 7.110534 H 12.444446 H 8.8888887 H 7.1111117 Z" fill="#d0d0d0" stroke-width="2.311186"/>
</svg>
